X:1
T:We Be Three Poor Mariners
M:4/4
L:1/4
K:C
 C3/2 D/2 E F| G3/2 A/2 B G|A/2-B/2 c B A| G3 G| F E D B,| C3/2 D/2E/2-F/2 G|\
 F E D D| C4| C C/2D/2 E F| G3/4 F/4 G3/4 A/4 G G|A/2-B/2 c B A| G3/4 F/4 G3/4 A/4 G G|\
 F E D B,| C3/2 D/2E/2-F/2 G| F ED/2-C/2 D| C3/4 B,/4 C3/4 D/4 C2|\


